X:1
T:Title
%%score ( 1 2 ) { 3 | 4 }
L:1/8
Q:1/4=103
M:4/4
K:Db
V:1 treble nm="Grand Piano, Soprano"
V:2 treble 
V:3 bass nm="Choir Pad, Aholiab, 87.87.87.87.87"
V:4 bass 
V:1
 [DF]>[EG] [FA]2 [Fd]2 [Ac]2 | [GB]2 [FA]2 [DF]4 | [CE]>[DF] [EG]2 [_F=G]2 [=FA]2 | [EG]2 [DF]6 | %4
w: By~Joseph~D.~Little,~1905 * * * *||||
 [DF]>[EG] [FA]2 [Fd]2 [Ac]2 | [GB]2 [FA]4 [DF]2 | [FA]>[FA] [EA]2 [Ec]2 [DB]2- | %7
w: |||
 [DB][CA] A4- [GA]2 | [GA]>[GA] [Gc]2- [Gc][GB] [GA]2 | [CG]2 [DF]2 [FA]2 z2 | %10
w: |||
 [FA][FA] [DB]2 [DA]2 [CG]2 | [DF]2 [CE]6 | [CA][CA] [DF]2- [DF][DF] [FA]2 | [Ad]2 [Gd]4 [GB]2 | %14
w: ||||
 [_Fc][FB] [=FA]2- [FA][DF] [DF]2 | [CE]2 D6 | [CA][CA] [DF]2- [DF][DF] [FA]2 | [Ad]2 [Gd]4 [GB]2 | %18
w: ||||
 [_Fc][FB] [=FA]2- [FA][DF] [DF]2 | [CE]2 D6- | D2 z2 z4 |] %21
w: |||
V:2
 x8 | x8 | x8 | x8 | x8 | x8 | x8 | z2 C4 z2 | x8 | x8 | x8 | x8 | x8 | x8 | x8 | x8 | x8 | x8 | %18
 x8 | x8 | x8 |] %21
V:3
 A,>A, D2 A,2 G,A, | B,C D2 A,4 | A,>A, A,2 A,2 C2 | A,2 A,6 | A,>D D2 A,2 G,A, | %5
 B,[K:treble]C D4 A,2 | D>D C2[K:bass] A,2 =G,2- | G,A, A,4[K:treble] C2 | %8
 C>C A,2- A,[K:bass]A, A,2 | A,2 A,2 D2 z2 | DD D2 D2 A,2 | A,2 A,6 | A,A, A,2- A,A, D2 | %13
 _C2 B,4[K:treble] D2 | CD D2- DD[K:bass] A,2 | G,2 F,6 | A,A, A,2- A,A, D2 | %17
 _C2 B,4[K:treble] D2 | CD D2- D[K:bass]D A,2 | G,2 F,6- | F,2 z2 z4 |] %21
V:4
 D,>D, D,2 D,2 D,2 | D,2 D,2 D,4 | A,,>A,, A,,2 A,,2 A,,2 | A,,2 D,6 | D,>D, D,2 D,2 D,2 | %5
 D,2 D,4 D,2 | D,>D, E,2 E,2 E,2- | E,A,, A,,6 | A,,>A,, A,,2- A,,B,, C,2 | A,,2 D,2 D,2 z2 | %10
 D,D, G,2 F,2 E,2 | D,2 A,,6 | A,,A,, D,2- D,D, D,2 | F,2 G,4 G,2 | =G,G, A,2- A,A,, A,,2 | %15
 A,,2 D,6 | A,,A,, D,2- D,D, D,2 | F,2 G,4 G,2 | =G,G, A,2- A,A,, A,,2 | A,,2 D,6- | D,2 z2 z4 |] %21

